X:23
T: The Mountain Streams, S. 76
N: I0522
O: Irland
S: O BOYLE, Sean: 25 Irish Folksongs, Dublin 1976]
R: Liebeslied, Standesunterschied]
M: 9/8
L: 1/16
K: A
d=cA2=G2E2 | =G4E2D2=C2A,2C2D2E2 | =G2E2D2E4
d=cA3GED | =C2=G4E2D2C2A,4A,2 | A,8-A,2
d=cA2=G2E2 | =G4E2D2=C2A,2C2D2E2 | =G2E2D2E4
d=cA3GED | =C2=G4E2D2C2A,4A,2 | A,8-A,2E2A4
B2 | =c2A2cde4d2A4B2 | A4=G2E4
E2A4B2 | =c2A2cde4d2A4B2 | A4
E2=G2A2E2G4A2 | E6D2=C2A,2C2D2E2 | =G2E2D2E4
d=cA3GED | =C2=G4E2D2C2A,4A,2 | A,8-A,2

@@@ Tune index: 7298
